packages/bezier-icons/icons/menu.svg

<svg width="24" height="24" viewBox="0 0 24 24" fill="none" xmlns="http://www.w3.org/2000/svg">
<path d="M3 5C3 5.55228 3.44772 6 4 6H20C20.5523 6 21 5.55228 21 5C21 4.44772 20.5523 4 20 4H4C3.44772 4 3 4.44772 3 5Z" fill="#313234"/>
<path d="M3 12C3 12.5523 3.44772 13 4 13H20C20.5523 13 21 12.5523 21 12C21 11.4477 20.5523 11 20 11H4C3.44772 11 3 11.4477 3 12Z" fill="#313234"/>
<path d="M21 19C21 19.5523 20.5523 20 20 20H4C3.44772 20 3 19.5523 3 19C3 18.4477 3.44772 18 4 18H20C20.5523 18 21 18.4477 21 19Z" fill="#313234"/>
</svg>

<svg xmlns="http://www.w3.org/2000/svg" width="24" height="24" fill="none" viewBox="0 0 24 24"><path fill="#313234" d="M3 5a1 1 0 0 0 1 1h16a1 1 0 1 0 0-2H4a1 1 0 0 0-1 1M3 12a1 1 0 0 0 1 1h16a1 1 0 1 0 0-2H4a1 1 0 0 0-1 1M21 19a1 1 0 0 1-1 1H4a1 1 0 1 1 0-2h16a1 1 0 0 1 1 1"/></svg>
